X: 10
T: Harvest Home, The
Z: snorre
S: https://thesession.org/tunes/49#setting46582
R: hornpipe
M: 4/4
L: 1/8
K: Dmaj
DAFA DAFA|defe dcBA|eAfA gAfA|(3efe (3dcB (3ABA (3GFE|
DAFA DAFA|defe dcBA|eAfA gAfA|defe d2z2|
AFDA FD (3FGA|defe dcBA|eAfA gAfA|(3efe (3dcB (3ABA (3GFE|
DAFA DAFA|defe dcBA|eAfA gAfA|defe dA (3Bcd|
eA (3AAA fA (3AAA|gAfA eA (3AAA|eAfA gAfA|(3efe (3dcB (3ABA (3GFE|
DAFA DAFA|defe dcBA|eAfA gAfA|defe dA (3ABc|
eA (3AAA fA (3AAA|gAfA eA (3AAA|eAfA gAfA|(3efe (3dcB (3ABA (3GFE|
DAFA DAFA|defe dcBA|eAfA gAfA|defe d2z2|
AFDA FD (3FGA|defe dcBA|eA (3AAA fAgA|(3AAA fA gA (3AAA|
FA (3AAA FAGA|(3AAA dA fAdA|eAfA gfec|defe dAAF|
DAFA DAFA|defe dcBA|GBAG FAdA|^GBed (3cBA (3=GFE|
FA (3AAA FADc|defe dcBA|eAfA gfec|defe dA (3Bcd|
eA (3AAA GAEA|fA (3AAA FADA|eA (3AAA fAgA|(3AAA fA gA (3AAA|
FA (3AAA FAGA|(3AAA dA fAdA|eAfA gfec|defe dA (3Bcd|
eA (3AAA fA (3AAA|gAfA eA (3AAA|eAfA gAfA|(3efe (3dcB (3ABA (3GFE|
DA (3FGA DA (3FGA|defe dcBA|eAfA gfec|defe d2z2|
AFDA FD (3FGA|defe dcBA|eAfA gAfA|(3efe (3dcB (3ABA (3GFE|
DA (3FGA DA (3FGA|defe dcBA|eAfA gfec|defe dBAF|
DAFA DAFA|defe dcBA|eAfA gAfA|eAfA gAfA|
FA (3AAA FAGA|(3AAA dA fAdA|eAfA gfec|defe dA (3Bcd|
eA (3AAA fA (3AAA|gAfA eA (3AAA|eA (3AAA fAgA|(3AAA fA gA (3AAA|
gA (3AAA gAfA|dA (3AAA fAdA|eAfA gfec|defe dA (3Bcd|
eA (3AAA fA (3AAA|gAfA eA (3AAA|eA (3AAA fAgA|(3AAA fA gA (3AAA|
gA (3AAA gAfA|dA (3AAA fAdA|eAfA gfec|dAFA D4||

